!!!!SEGMENT:45Yoshiwarasuzume_c.krn
!!!OTL: 吉原雀
!!!OPR:Eiga Banso Kyokusyu,jidai-geki,zenpen
!!!YOY:1929
!!!ONB:Geisya,Drinking
**kern
*clefG2
*C:
*M2/4
=1
8ccL
8ee
8ff#
8ff#J
=2
8f#L
8ee
8ff#
8ff#J
=3
8f#L
8ee
8ff#
8ff#J
=4
8f#L
8ee
8ff#
8ff#J
=5
8f#L
8ee
8ff#
8ff#J
=6
8f#L
8ee
8ff#J
8r
=7
8ccL
8ee
8ff#
8eeJ
=8
8ccL
8eeJ
8bL
8aJ
=9
16bLL
16aJ
8f#J
4a
=10
8r
8a
4b
=11
8r
8cc
4cc
=12
8r
8ee
4ee
=13
8r
8cc
4cc
=14
8eeL
8cc
8b
8aJ
=15
8.bL
16gJk
4f#
=16
8r
8dd
8cc#XL
8bJ
=17
8gL
8bJ
4cc#X
=18
8r
8dd
4cc#X
=19
8ddL
8cc#XJ
8bL
8cc#J
=20
8ddL
8bJ
4g
=21
8gL
8f#J
4g
=22
8gL
8f#J
8r
8cc
=23
8.bL
16gJk
8f#L
8eJ
=24
8f#L
8a
8b
8cc#XJ
=25
4g
4f#
==
*-
!!!ENC: Yukiko Yoden
!!!END: 2023/06/11
